assets/svg/sec3_background_big.svg

<svg fill="none" height="152" viewBox="0 0 1441 152" width="1441" xmlns="http://www.w3.org/2000/svg"><path d="m1438.38 2.21507 1.18-.92939-.93-1.177372-1.18.929372zm-292.01 138.10693-.39-1.45-1.45.385.39 1.449zm293.25-136.53707.93 1.17739 1.18-.92938-.93-1.1774zm-292.74 138.47007-1.45.384.39 1.45 1.45-.385zm-841.784 5.773 1.459.35.35-1.458-1.458-.351zm-305.486489-136.9208.914265-1.18914-1.189167-.91426-.914269 1.1892zm305.019489 138.8648-.351 1.459 1.459.35.35-1.458zm-306.23851-137.2792-1.18917-.9143-.91426 1.1892 1.18916.9143zm1439.05951-11.65512c-76.88 60.68782-174.01 106.65332-291.47 137.83432l.77 2.899c117.76-31.262 215.29-77.3837 292.56-138.37854zm3.35 1.81786-1.24-1.56986-2.36 1.85878 1.24 1.56986zm-293.53 140.84846c117.96-31.315 215.75-77.5422 293.28-138.74168l-1.86-2.35478c-77.14 60.89246-174.53 106.96246-292.19 138.19746zm-2.35-2.998.51 1.933 2.9-.769-.51-1.933zm-839.473 5.863c-123.464-29.687-225.0752-75.2614-304.923224-136.65094l-1.828536 2.37834c80.25616 61.7032 182.27876 107.4286 306.05076 137.1896zm.64 3.754.468-1.945-2.917-.701-.468 1.945zm-308.61078-136.441c80.52828 61.9124 182.82578 107.738 306.80178 137.549l.701-2.917c-123.669-29.737-225.5541-75.4117-305.674245-137.0104zm.94412-3.689-1.21902 1.5855 2.378336 1.8285 1.219021-1.5855z" fill="#0bd8a2"/></svg>

<svg width="1441" height="152" viewBox="0 0 1441 152" fill="none" xmlns="http://www.w3.org/2000/svg">
<path d="M1438.38 2.21507L1439.56 1.28568L1438.63 0.108308L1437.45 1.03768L1438.38 2.21507ZM1146.37 140.322L1145.98 138.872L1144.53 139.257L1144.92 140.706L1146.37 140.322ZM1439.62 3.78493L1440.55 4.96232L1441.73 4.03294L1440.8 2.85554L1439.62 3.78493ZM1146.88 142.255L1145.43 142.639L1145.82 144.089L1147.27 143.704L1146.88 142.255ZM305.096 148.028L306.555 148.378L306.905 146.92L305.447 146.569L305.096 148.028ZM-0.390489 11.1072L0.523776 9.91806L-0.665391 9.0038L-1.57966 10.193L-0.390489 11.1072ZM304.629 149.972L304.278 151.431L305.737 151.781L306.087 150.323L304.629 149.972ZM-1.60951 12.6928L-2.79868 11.7785L-3.71294 12.9677L-2.52378 13.882L-1.60951 12.6928ZM1437.45 1.03768C1360.57 61.7255 1263.44 107.691 1145.98 138.872L1146.75 141.771C1264.51 110.509 1362.04 64.3873 1439.31 3.39246L1437.45 1.03768ZM1440.8 2.85554L1439.56 1.28568L1437.2 3.14446L1438.44 4.71432L1440.8 2.85554ZM1147.27 143.704C1265.23 112.389 1363.02 66.1618 1440.55 4.96232L1438.69 2.60754C1361.55 63.5 1264.16 109.57 1146.5 140.805L1147.27 143.704ZM1144.92 140.706L1145.43 142.639L1148.33 141.87L1147.82 139.937L1144.92 140.706ZM305.447 146.569C181.983 116.882 80.3718 71.3076 0.523776 9.91806L-1.30476 12.2964C78.9514 73.9996 180.974 119.725 304.746 149.486L305.447 146.569ZM306.087 150.323L306.555 148.378L303.638 147.677L303.17 149.622L306.087 150.323ZM-2.52378 13.882C78.0045 75.7944 180.302 121.62 304.278 151.431L304.979 148.514C181.31 118.777 79.4249 73.1023 -0.695245 11.5036L-2.52378 13.882ZM-1.57966 10.193L-2.79868 11.7785L-0.420344 13.607L0.798677 12.0215L-1.57966 10.193Z" fill="#0BD8A2"/>
</svg>
